build/images/vector/Meedan-logo-text.svg

<svg width="127" height="111" viewBox="0 0 127 111" xmlns="http://www.w3.org/2000/svg"><title>Imported Layers</title><g fill="none" fill-rule="evenodd"><path d="M63.705 27.032l-17.748 12.83 17.748 12.83 17.748-12.83-17.748-12.83" fill="#91A000"/><path d="M29.505 2.307a10.383 10.383 0 0 1 4.086 8.262v20.354l12.366 8.94L63.704 27.03l-34.2-24.725" fill="#9DC538"/><path d="M29.505 77.417a10.383 10.383 0 0 0 4.086-8.262V48.8l12.366-8.937 17.748 12.83-34.2 24.724" fill="#FBD202"/><path d="M29.505 2.307l-.51-.367A10.345 10.345 0 0 0 23.192.17c-5.742 0-10.398 4.657-10.398 10.4 0 3.482 1.714 6.562 4.343 8.45v.008L33.59 30.925V10.57c0-3.37-1.602-6.362-4.085-8.263" fill="#843F18"/><path d="M33.59 69.155V48.8L17.138 60.697v.01a10.382 10.382 0 0 0-4.342 8.45c0 5.742 4.655 10.398 10.398 10.398 2.15 0 4.145-.652 5.803-1.77l.51-.367a10.38 10.38 0 0 0 4.085-8.262" fill="#EB4918"/><path d="M17.137 19.02a10.384 10.384 0 0 1-4.343-8.45v58.57c0-3.483 1.714-6.563 4.343-8.452L33.59 48.785V30.923L17.138 19.02" fill="#F17522"/><path d="M97.904 2.307a10.383 10.383 0 0 0-4.086 8.262v20.354l-12.365 8.94L63.705 27.03l34.2-24.725" fill="#FBD202"/><path d="M97.904 77.417a10.383 10.383 0 0 1-4.086-8.262V48.8l-12.365-8.937-17.748 12.83 34.2 24.724" fill="#9DC538"/><path d="M93.82 10.57v20.353l16.453-11.895v-.01a10.38 10.38 0 0 0 4.342-8.45c0-5.742-4.655-10.398-10.398-10.398-2.15 0-4.145.652-5.803 1.77l-.51.367a10.38 10.38 0 0 0-4.085 8.262" fill="#00A013"/><path d="M97.904 77.417l.51.368a10.352 10.352 0 0 0 5.803 1.768c5.742 0 10.398-4.656 10.398-10.398 0-3.483-1.714-6.562-4.343-8.45v-.01L93.818 48.8v20.355c0 3.368 1.603 6.36 4.086 8.262" fill="#01722F"/><path d="M110.272 19.02a10.384 10.384 0 0 0 4.343-8.45v58.57c0-3.483-1.714-6.563-4.343-8.452L93.818 48.785V30.923l16.454-11.903" fill="#37A0DE"/><path d="M.922 91.86h2.09l6.658 9.977 6.66-9.976h2.09v18.28h-2.064V95.335l-6.66 9.793h-.104l-6.66-9.766v14.782H.923v-18.28M26.672 91.86h13.214v1.882h-11.15v6.24h9.975v1.88h-9.975v6.4h11.282v1.88H26.672v-18.28M46.782 91.86h13.214v1.882h-11.15v6.24h9.975v1.88h-9.975v6.4h11.28v1.88H46.783v-18.28M66.894 91.86h6.346c5.745 0 9.714 3.944 9.714 9.09v.05c0 5.146-3.97 9.14-9.714 9.14h-6.346V91.86zm6.346 16.375c4.622 0 7.573-3.134 7.573-7.182V101c0-4.046-2.95-7.233-7.573-7.233h-4.283v14.468h4.283zM94.444 91.73h1.933l8.33 18.412h-2.22l-2.14-4.83h-9.95l-2.168 4.83h-2.117l8.33-18.41zm5.092 11.726l-4.153-9.323-4.178 9.323h8.33zM111.028 91.86h1.933l11.518 14.652v-14.65h2.01v18.28h-1.645L113.04 95.15v14.99h-2.012V91.86" fill="#7F7F7F"/></g></svg>

<?xml version="1.0" encoding="UTF-8" standalone="no"?>
<svg width="127px" height="111px" viewBox="0 0 127 111" version="1.1" xmlns="http://www.w3.org/2000/svg" xmlns:xlink="http://www.w3.org/1999/xlink" xmlns:sketch="http://www.bohemiancoding.com/sketch/ns">
    <!-- Generator: Sketch 3.3.2 (12043) - http://www.bohemiancoding.com/sketch -->
    <title>Imported Layers</title>
    <desc>Created with Sketch.</desc>
    <defs></defs>
    <g id="Page-1" stroke="none" stroke-width="1" fill="none" fill-rule="evenodd" sketch:type="MSPage">
        <g id="Imported-Layers" sketch:type="MSLayerGroup">
            <path d="M63.705,27.032 L45.957,39.863 L63.705,52.693 L81.453,39.863 L63.705,27.032" id="Fill-1" fill="#91A000" sketch:type="MSShapeGroup"></path>
            <path d="M29.505,2.307 C31.988,4.208 33.591,7.201 33.591,10.569 L33.591,30.924 L45.956,39.863 L63.704,27.032 L29.505,2.307" id="Fill-2" fill="#9DC538" sketch:type="MSShapeGroup"></path>
            <path d="M29.505,77.417 C31.988,75.516 33.591,72.523 33.591,69.155 L33.591,48.8 L45.956,39.863 L63.704,52.692 L29.505,77.417" id="Fill-3" fill="#FBD202" sketch:type="MSShapeGroup"></path>
            <path d="M29.505,2.307 L28.995,1.94 C27.338,0.823 25.342,0.171 23.192,0.171 C17.45,0.171 12.794,4.827 12.794,10.569 C12.794,14.052 14.508,17.132 17.137,19.02 L17.137,19.028 L33.591,30.925 L33.591,10.569 C33.591,7.201 31.988,4.208 29.505,2.307" id="Fill-4" fill="#843F18" sketch:type="MSShapeGroup"></path>
            <path d="M33.591,69.155 L33.591,48.801 L17.137,60.696 L17.137,60.706 C14.509,62.592 12.795,65.674 12.795,69.156 C12.795,74.898 17.45,79.554 23.193,79.554 C25.342,79.554 27.338,78.902 28.996,77.785 L29.505,77.417 C31.989,75.516 33.591,72.523 33.591,69.155" id="Fill-5" fill="#EB4918" sketch:type="MSShapeGroup"></path>
            <path d="M17.137,19.02 C14.508,17.133 12.794,14.051 12.794,10.569 L12.794,69.139 C12.794,65.657 14.508,62.577 17.137,60.688 L33.591,48.785 L33.591,30.923 L17.137,19.02" id="Fill-6" fill="#F17522" sketch:type="MSShapeGroup"></path>
            <path d="M97.904,2.307 C95.421,4.208 93.818,7.201 93.818,10.569 L93.818,30.924 L81.453,39.863 L63.705,27.032 L97.904,2.307" id="Fill-7" fill="#FBD202" sketch:type="MSShapeGroup"></path>
            <path d="M97.904,77.417 C95.421,75.516 93.818,72.523 93.818,69.155 L93.818,48.8 L81.453,39.863 L63.705,52.693 L97.904,77.417" id="Fill-8" fill="#9DC538" sketch:type="MSShapeGroup"></path>
            <path d="M93.819,10.569 L93.819,30.923 L110.273,19.028 L110.273,19.018 C112.901,17.133 114.615,14.05 114.615,10.568 C114.615,4.826 109.96,0.17 104.217,0.17 C102.068,0.17 100.072,0.822 98.414,1.939 L97.905,2.307 C95.421,4.208 93.819,7.201 93.819,10.569" id="Fill-9" fill="#00A013" sketch:type="MSShapeGroup"></path>
            <path d="M97.904,77.417 L98.414,77.785 C100.071,78.901 102.067,79.553 104.217,79.553 C109.959,79.553 114.615,74.897 114.615,69.155 C114.615,65.672 112.901,62.593 110.272,60.705 L110.272,60.696 L93.818,48.8 L93.818,69.155 C93.818,72.523 95.421,75.516 97.904,77.417" id="Fill-10" fill="#01722F" sketch:type="MSShapeGroup"></path>
            <path d="M110.272,19.02 C112.901,17.133 114.615,14.051 114.615,10.569 L114.615,69.139 C114.615,65.657 112.901,62.577 110.272,60.688 L93.818,48.785 L93.818,30.923 L110.272,19.02" id="Fill-11" fill="#37A0DE" sketch:type="MSShapeGroup"></path>
            <path d="M0.922,91.861 L3.011,91.861 L9.67,101.837 L16.329,91.861 L18.419,91.861 L18.419,110.141 L16.356,110.141 L16.356,95.334 L9.696,105.127 L9.592,105.127 L2.933,95.361 L2.933,110.142 L0.922,110.142 L0.922,91.861" id="Fill-12" fill="#7F7F7F" sketch:type="MSShapeGroup"></path>
            <path d="M26.672,91.861 L39.886,91.861 L39.886,93.742 L28.735,93.742 L28.735,99.983 L38.711,99.983 L38.711,101.863 L28.735,101.863 L28.735,108.261 L40.017,108.261 L40.017,110.142 L26.672,110.142 L26.672,91.861" id="Fill-13" fill="#7F7F7F" sketch:type="MSShapeGroup"></path>
            <path d="M46.782,91.861 L59.996,91.861 L59.996,93.742 L48.845,93.742 L48.845,99.983 L58.821,99.983 L58.821,101.863 L48.845,101.863 L48.845,108.261 L60.126,108.261 L60.126,110.142 L46.782,110.142 L46.782,91.861" id="Fill-14" fill="#7F7F7F" sketch:type="MSShapeGroup"></path>
            <path d="M66.894,91.861 L73.24,91.861 C78.985,91.861 82.954,95.804 82.954,100.949 L82.954,101.001 C82.954,106.146 78.985,110.141 73.24,110.141 L66.894,110.141 L66.894,91.861 L66.894,91.861 Z M73.24,108.235 C77.862,108.235 80.813,105.101 80.813,101.053 L80.813,101.001 C80.813,96.954 77.862,93.767 73.24,93.767 L68.957,93.767 L68.957,108.235 L73.24,108.235 L73.24,108.235 Z" id="Fill-15" fill="#7F7F7F" sketch:type="MSShapeGroup"></path>
            <path d="M94.444,91.731 L96.377,91.731 L104.707,110.142 L102.487,110.142 L100.346,105.311 L90.396,105.311 L88.229,110.142 L86.113,110.142 L94.444,91.731 L94.444,91.731 Z M99.536,103.456 L95.383,94.133 L91.205,103.456 L99.536,103.456 L99.536,103.456 Z" id="Fill-16" fill="#7F7F7F" sketch:type="MSShapeGroup"></path>
            <path d="M111.028,91.861 L112.961,91.861 L124.478,106.512 L124.478,91.861 L126.488,91.861 L126.488,110.141 L124.843,110.141 L113.039,95.151 L113.039,110.141 L111.028,110.141 L111.028,91.861" id="Fill-17" fill="#7F7F7F" sketch:type="MSShapeGroup"></path>
        </g>
    </g>
</svg>
